lib/svgs/github.svg

<?xml version="1.0" encoding="UTF-8" standalone="no"?>
<svg width="20px" height="20px" viewBox="0 0 20 20" version="1.1" xmlns="http://www.w3.org/2000/svg" xmlns:xlink="http://www.w3.org/1999/xlink">
    <defs></defs>
    <g id="Icons" stroke="none" stroke-width="1" fill="none" fill-rule="evenodd">
        <g id="Web" transform="translate(-337.000000, -988.000000)" fill="#000000">
            <g id="brand/github" transform="translate(337.000000, 988.000000)">
                <path d="M12.9678806,13.4672813 C14.2177435,12.9984076 14.8740335,11.9979088 15.0301864,10.6847742 C15.1239421,10.0281268 15.1864992,9.37147948 14.9364307,8.74620777 C14.8114764,8.37098071 14.5615678,8.05834485 14.4052549,7.71449344 C14.3426978,7.62068667 14.3114992,7.49566434 14.3426978,7.40185758 C14.4990106,6.77658587 14.4678121,6.15115407 14.2489421,5.55709792 C14.2177435,5.40086003 14.1239878,5.36948439 13.9990335,5.36948439 C13.4678577,5.40086003 12.9990791,5.58847356 12.5928577,5.90110942 C12.1866362,6.18252971 11.8116134,6.21374528 11.3428348,6.08872295 C10.2804833,5.86973378 9.24917041,5.93232498 8.2180175,6.18252971 C8.09306321,6.21374528 7.93675035,6.18252971 7.81179605,6.11993851 C7.31181889,5.80730265 6.8430403,5.52588236 6.24930741,5.40086003 C5.84308597,5.30705327 5.78068882,5.33826883 5.6869331,5.77608709 C5.53062024,6.30755204 5.49942166,6.87023255 5.65573452,7.40185758 C5.6869331,7.49566434 5.6869331,7.62068667 5.62437596,7.65190223 C4.8744902,8.58996988 4.78073449,9.65289978 4.96824592,10.778581 C5.24935308,12.4981582 6.21810884,13.4360658 7.93675035,13.7487016 C8.12426178,13.7800773 8.31177322,13.8112928 8.43672751,13.8112928 C8.31177322,14.1551443 8.18681893,14.4991558 8.03050606,14.8117916 C7.99930749,14.8742227 7.93675035,14.9680295 7.8743532,14.9994051 C6.99935316,15.3432566 6.21810884,15.0932119 5.71813167,14.2801666 C5.46822309,13.8425084 5.12439879,13.498657 4.59322305,13.4048502 C4.56202448,13.4048502 4.53066591,13.3734746 4.49946733,13.4048502 L4.12444446,13.5298725 C4.1870016,13.6236793 4.24939875,13.7487016 4.34315447,13.8112928 C4.81193306,14.1239287 5.09320022,14.5929625 5.31191023,15.1244275 C5.62437596,15.7810748 6.18691026,16.0937107 6.87439887,16.1561418 C7.24926175,16.1875175 7.62428462,16.1561418 7.99930749,16.1561418 C7.99930749,16.6251756 8.03050606,17.125425 7.99930749,17.6256744 C7.99930749,17.9383103 7.7493989,18.0633326 7.43677318,17.9695258 C7.1868646,17.9070947 6.96815458,17.7820724 6.74944457,17.6882656 C3.53071158,16.218733 1.62455863,12.7482029 2.06213865,9.18402603 C2.49955867,5.61968912 5.18695593,2.71199957 8.62423895,2.11794342 C13.1240334,1.33627373 17.3739193,4.52538358 17.9362937,9.15265039 C18.4050722,12.967032 16.2488507,16.6251756 12.717812,17.9070947 C12.6554148,17.9383103 12.5928577,17.9695258 12.5303006,17.9695258 C12.2178348,18.0633326 11.9991248,17.9070947 11.9991248,17.5318676 L11.9991248,15.5308701 C11.9991248,14.9368139 11.9365677,14.3427578 11.4991476,13.873724 C12.0303234,13.7174861 12.499102,13.6236793 12.9678806,13.4672813 L12.9678806,13.4672813 Z" id="Shape"></path>
            </g>
        </g>
    </g>
</svg>

<svg xmlns="http://www.w3.org/2000/svg" viewBox="0 0 20 20">
    <path fill="#000" fill-rule="evenodd" d="M12.968 13.467c1.25-.469 1.906-1.47 2.062-2.782.094-.657.156-1.314-.094-1.939-.125-.375-.374-.688-.53-1.032-.063-.093-.095-.218-.063-.312a3.093 3.093 0 0 0-.094-1.845c-.031-.156-.125-.188-.25-.188a2.51 2.51 0 0 0-1.406.532 1.372 1.372 0 0 1-1.25.188 7.02 7.02 0 0 0-3.125.094.624.624 0 0 1-.406-.063 4.744 4.744 0 0 0-1.563-.72c-.406-.093-.468-.062-.562.376a2.878 2.878 0 0 0-.031 1.626c.03.094.03.219-.032.25-.75.938-.843 2-.656 3.127.281 1.72 1.25 2.657 2.969 2.97.187.031.375.062.5.062-.125.344-.25.688-.406 1-.032.063-.094.157-.157.188-.875.344-1.656.094-2.156-.719-.25-.437-.594-.781-1.125-.875-.031 0-.062-.032-.094 0l-.375.125c.063.094.125.219.22.281.468.313.75.782.968 1.313.312.657.875.97 1.562 1.032.375.032.75 0 1.125 0 0 .47.032.97 0 1.47 0 .312-.25.437-.562.344-.25-.063-.469-.188-.688-.282a8.25 8.25 0 0 1-4.687-8.504C2.5 5.62 5.187 2.712 8.624 2.118c4.5-.782 8.75 2.407 9.312 7.035.47 3.814-1.687 7.472-5.218 8.754a.444.444 0 0 1-.188.063c-.312.093-.53-.063-.53-.438V15.53c0-.594-.063-1.188-.5-1.657.53-.157 1-.25 1.468-.407z"/>
</svg>
